X: 11482
P: Quadrille.
Q: "Allegro."
M: 6/8
L: 1/8
K: G
d |\
e2d c2B | d2c A3 | B2c e2d | cBA G2d |\
gfe dcB | d2c A3 | B2c e2d | G3 "^Fin."z2 H:|\
d |\
dcB BAG | F2A e2d | ^c2d =c2d | B3 G2d |
dcB BAG | F2A e2d | ^c2d d=cA | G3 "^D.C."z2 |]\
c2d e2=f | g3 a2g | f2g =f2g | e3 c2G |\
c2d e2f | g3 a2g | ^f2g g=fd | c3 "^D.C."z2 |]


